meters/img/download.svg

<svg width="25" height="24" fill="none" xmlns="http://www.w3.org/2000/svg"><path d="M17.09 9H15.5V4c0-.55-.45-1-1-1h-4c-.55 0-1 .45-1 1v5H7.91c-.89 0-1.34 1.08-.71 1.71l4.59 4.59c.39.39 1.02.39 1.41 0l4.59-4.59c.63-.63.19-1.71-.7-1.71ZM5.5 19c0 .55.45 1 1 1h12c.55 0 1-.45 1-1s-.45-1-1-1h-12c-.55 0-1 .45-1 1Z" fill="#F1F2F1"/></svg>

<svg width="25" height="24" viewBox="0 0 25 24" fill="none" xmlns="http://www.w3.org/2000/svg">
<path d="M17.09 9H15.5V4C15.5 3.45 15.05 3 14.5 3H10.5C9.95 3 9.5 3.45 9.5 4V9H7.91C7.02 9 6.57 10.08 7.2 10.71L11.79 15.3C12.18 15.69 12.81 15.69 13.2 15.3L17.79 10.71C18.42 10.08 17.98 9 17.09 9ZM5.5 19C5.5 19.55 5.95 20 6.5 20H18.5C19.05 20 19.5 19.55 19.5 19C19.5 18.45 19.05 18 18.5 18H6.5C5.95 18 5.5 18.45 5.5 19Z" fill="#F1F2F1"/>
</svg>
